X:1
T:Title
%%score ( 1 2 ) ( 3 4 )
L:1/8
Q:1/4=100
M:4/4
K:Eb
V:1 treble nm="Midi_20"
V:2 treble 
V:3 bass nm="Midi_20"
V:4 bass 
V:1
"^St Hugh (C.M.)""^E. J. Hopkins\n(1818-1901)" E2 | E2 F2 G2 E2 | B2 F2 G2 G2 | A2 c2 B2 E2 | F6 || %5
 B2 | e2 d2 c2 B2 | A2 G2 F2 c2 | B2 E2 F3 F | E6 |] %10
V:2
 B,2 | C2 B,2 B,2 E2 | E3 D E2 E2 | E2 D2 E2 E2 | D6 || D2 | E2 G2 G2 E2 | E2 E2 E2 D2 | %8
 E2 E2 E2 D2 | E6 |] %10
V:3
 G,2 | A,2 A,2 G,2 G,2 | G,2 A,2 G,2 B,2 | A,2 A,2 B,3 =A, | B,6 || A,2 | G,2 =B,2 C2 G,2 | %7
 A,2 _B,2 C2 F,2 | B,2 G,2 F,2 A,2 | G,6 |] %10
V:4
 E,2 | C,2 D,2 E,2 C,2 | B,,2 B,,2 E,2 _D,2 | C,2 F,2 G,2 C,2 | B,,6 || B,,2 | C,2 D,2 E,2 _D,2 | %7
 C,2 B,,2 =A,,2 _A,,2 | G,,2 C,2 A,,2 B,,2 | E,6 |] %10

